X:16004
T:Planxty Irwin
R:Jig
C:Turlough O'Carolan (1713)
O:Ireland
M:6/8
L:1/8
Q:1/8=160
K:G
d|\
"G"g2f "C"e>fg|"G"d2c "Em"B>AG|"C"c2A "G"B>cd|"D7"F2G A2f|
"G"g2f "C"e>fg|"G"d2c "Em"B>AG|"Am"c2A "G"B>cd|"C"GA "D7"F "G"G2:|
|:d|\
"G"g>ag g>fg|"D7"a>ba "D7"a>fd|"G"b2b "D7"a>bg|"A7"f>ge "D7"def|
"G"g2f "C"e>fg|"G"d2c "Em"B>AG|"Am"c2A "G"B>cd|"C"GA "D7"F "G"G2:|

